vl/uber_ludwig-ar21.svg

<svg xmlns="http://www.w3.org/2000/svg" xmlns:sodipodi="http://sodipodi.sourceforge.net/DTD/sodipodi-0.dtd" xmlns:inkscape="http://www.inkscape.org/namespaces/inkscape" viewBox="0 0 120 60" version="1.1" sodipodi:docname="ludwig-ar21.svg" inkscape:version="0.92.4 (5da689c313, 2019-01-14)" height="1em" width="1em">
  <sodipodi:namedview pagecolor="#ffffff" bordercolor="#666666" borderopacity="1" objecttolerance="10" gridtolerance="10" guidetolerance="10" inkscape:pageopacity="0" inkscape:pageshadow="2" inkscape:window-width="1920" inkscape:window-height="1001" showgrid="false" inkscape:zoom="1.473913" inkscape:cx="64.454277" inkscape:cy="70" inkscape:window-x="-9" inkscape:window-y="-9" inkscape:window-maximized="1" inkscape:current-layer="svg9"/>
  <g style="fill:#000000;fill-rule:evenodd;stroke:none;stroke-width:1" transform="matrix(0.23809524,0,0,0.23809524,4.915016,16.241045)">
    <g style="fill:#000000;fill-rule:nonzero">
      <path d="m 61.356932,47.787611 v 20 h 59.999998 v -20 z m -40,-40.0000004 V 87.787611 h 20 V 7.7876106 Z m 0,80.0000004 V 107.78761 H 121.35693 V 87.787611 Z m 139.999998,0 v 19.999999 h 20 V 87.787611 Z m 0,-80.0000004 V 27.787611 h 20 V 7.7876106 Z m -99.999998,0 V 47.787611 h 20 V 7.7876106 Z m 39.999998,0 V 47.787611 h 20 V 7.7876106 Z m 40,0 V 107.78761 h 20 V 7.7876106 Z m 40,20.0000004 v 60 h 20 v -60 z m 40,-20.0000004 V 87.787611 h 20 V 7.7876106 Z m 40,0 V 87.787611 h 20 V 7.7876106 Z m 40,0 V 87.787611 h 20 V 7.7876106 Z m 40,0 V 107.78761 h 20 V 7.7876106 Z m 40,0 V 107.78761 h 20 V 7.7876106 Z m 20,80.0000004 v 19.999999 h 40 V 87.787611 Z m 10,-40 v 20 h 30 v -20 z m 10,20 v 20 h 20 v -20 z m -20,-60.0000004 V 27.787611 h 40 V 7.7876106 Z m -180,80.0000004 v 19.999999 h 100 V 87.787611 Z m -40,19.999999 8.69336,-0.14356 11.30664,-11.646479 v -8.20996 h -20 z m 0,-99.9999994 V 27.787611 h 20 V 19.57765 L 190.05029,7.9311656 Z" style="fill:#000000" inkscape:connector-curvature="0" sodipodi:nodetypes="ccccccccccccccccccccccccccccccccccccccccccccccccccccccccccccccccccccccccccccccccccccccccccccccccccccccccccc"/>
    </g>
  </g>
</svg>

<svg xmlns="http://www.w3.org/2000/svg" width="120" height="60" viewBox="0 0 120 60" version="1.1">
  <g style="fill:#000;fill-rule:evenodd;stroke:none;stroke-width:1" transform="matrix(.2381 0 0 .2381 4.915 16.241)">
    <g style="fill:#000;fill-rule:nonzero">
      <path d="M61.357 47.788v20h60v-20zm-40-40v80h20v-80Zm0 80v20h100v-20Zm140 0v20h20v-20Zm0-80v20h20v-20Zm-100 0v40h20v-40Zm40 0v40h20v-40Zm40 0v100h20v-100Zm40 20v60h20v-60zm40-20v80h20v-80Zm40 0v80h20v-80Zm40 0v80h20v-80Zm40 0v100h20v-100Zm40 0v100h20v-100Zm20 80v20h40v-20Zm10-40v20h30v-20zm10 20v20h20v-20zm-20-60v20h40v-20Zm-180 80v20h100v-20Zm-40 20 8.693-.144 11.307-11.646v-8.21h-20zm0-100v20h20v-8.21L190.05 7.93Z" style="fill:#000"/>
    </g>
  </g>
</svg>
